X: 1
T: Reel Saint-Ignace
M: C|
L: 1/8
R: Reel
S: Joseph Allard
D: Tidal Wave - Marche de St-Laurent
Z: AK/Fiddler's Companion
F: http://tunearch.org/wiki/Reel_St-Ignace 2015-7-18
N: Play with swing--between a hornpipe and reel
K: G
|:\
g2dB GBed | cBAG FADF | GFGB edcB | Ad^ce dfaf |
g2dB GBed | cBAG FADF | GBdg ecAF |1 G2B2G2 (3def :|2 G2B2G4 |]
K:D
|:\
A{c}BAG FAdf | edcd efg2 | fedf edce | dfed cB A2 |
A{c}BAG FAdf | edcd efg2 | fedf edce |1 d2f2d2 FG :|2 d2f2d2 (3def |]

%%sep 1 1 500

